X:24
T:PEGDRBY4- Eveleen's Bower (Pretty Girl of Derby, O)
S:Stevenson & Moore's 'Irish Melodies', 2nd issue, 1807/8
Q:1/4=120
L:1/4
M:C
K:A
E/|AA/ A/ A/G/ F/ E/|E/ A/AA/G/ F/E/|AA? A/ A/4 c3/4 e/c/|\
B/4G3/4 EEz/d/|(c/B/) c/ d/{d/}e c/ G/|A/4 F3/4 E/D/ D/C/ D/E/|\
E3/4 G/4 A/ F/ B/A/ G/ F/|EAAz/E/|AAA/G/ F/ E/|D/A/ A A/G/ F/E/|\
A A3/4 A/4 A/c/ e/ c/|B/4G3/4 EEz/d/|c/ B/ c/ d/ ec/ G/|\
A3/4 F/4 E/ D/ D/C/ D/ E/|F/G/ A/F/ B/A/ G/ F/|E/ E/AAz/|]

